!! George Gerswhin, "How Long Has This Been Going On?" from
!! "Bumper Book of George Gerswhin,"
!! London: Chappell Music Ltd., 1987; pp.114-117
**kern
*M2/2
*MM[Moderato]
=1
4r
8.b
16a
4g
8.b
16a
=2
4g
8.g
16a
8.b
16b
8.a
16a
=3
2g
[2g
=4
1g]
=5
4r
8.dd
16cc#
4b
8.dd
16cc#
=6
4b
8.b
16cc#
8.dd
16dd
8.cc#
16cc#
=7
2b
[2b
=8
1b]
=9
4r
8.cc
16b
4a
8.cc
16b
=10
4a
8.a
16b
8.cc
16cc
8.b
16b
=11
2a
[2a
=12
1a]
!! page 115
=13
4a
4b
8cc#
4e
[8f#
=14
1f#]
=15
4a
4b
8ccn
4e
[8f#
=16
1f#]
=17
4r
8.b
16a
4g
8.b
16a
=18
4g
8.g
16a
8.b
16b
8.a
16a
=19
2g
[2g
=20
1g]
=21
4r
8.dd
16cc#
4b
8.dd
16cc#
=22
4b
8.b
16cc#
8.dd
16dd
8.cc#
16cc#
=23
2b
[2b
=24
4b]
4r
2r
!! Refrain
=25
8dd
4ee
[8ee
2ee]
=26
8ee
4dd
[8dd
2dd]
=27
4dd
4ee
4ee
4dd
=28
8a
4g
[8g
2g]
!! page 116
=29
8g
4a
[8a
2a]
=30
8e
4d
[8d
4d_
8.d]
16d
=31
8.e
16g
8.a
16g
8b-
4a
[8bn
=32
1b]
=33
8dd
4ee
[8ee
2ee]
=34
8ee
4dd
[8dd
2dd]
=35
4dd
4ee
4ee
4dd
=36
8a
4g
[8g
2g]
=37
8g
4a
[8a
2a]
=38
8e
4d
[8d
4d_
8.d]
16e
=39
8.e
16g
8.a
16g
8b-
4a
[8g
=40
2.g]
4r
=41
2b
8a
4cc
8a
=42
4b
8g
[8a
2a]
!! page 117
=43
4b
4b
8a
4cc
8a
=44
[2b
4b]
4r
=45
2dd
8cc#
4ee
8cc#
=46
4dd
8b
[8cc#
2cc#]
=47
4dd
4dd
8cc#
4ee
8cc#
=48
1dd
=49
8dd
4ee
[8ee
2ee]
=50
8ee
4dd
[8dd
2dd]
=51
4dd
4ee
4ee
4dd
=52
8a
4g
[8g
2g]
=53
8g
4a
[8a
4a_
8.a]
16g
=54
8e
4d
[8d
4d_
8.d]
16d
=55
8.e
16g
8.a
16g
8b-
4a
[8g
!! First ending.
=56
2g]
2r
!! Refrain
=25
8dd
4ee
[8ee
2ee]
=26
8ee
4dd
[8dd
2dd]
=27
4dd
4ee
4ee
4dd
=28
8a
4g
[8g
2g]
!! page 116
=29
8g
4a
[8a
2a]
=30
8e
4d
[8d
4d_
8.d]
16d
=31
8.e
16g
8.a
16g
8b-
4a
[8bn
=32
1b]
=33
8dd
4ee
[8ee
2ee]
=34
8ee
4dd
[8dd
2dd]
=35
4dd
4ee
4ee
4dd
=36
8a
4g
[8g
2g]
=37
8g
4a
[8a
2a]
=38
8e
4d
[8d
4d_
8.d]
16e
=39
8.e
16g
8.a
16g
8b-
4a
[8g
=40
2.g]
4r
=41
2b
8a
4cc
8a
=42
4b
8g
[8a
2a]
!! page 117
=43
4b
4b
8a
4cc
8a
=44
[2b
4b]
4r
=45
2dd
8cc#
4ee
8cc#
=46
4dd
8b
[8cc#
2cc#]
=47
4dd
4dd
8cc#
4ee
8cc#
=48
1dd
=49
8dd
4ee
[8ee
2ee]
=50
8ee
4dd
[8dd
2dd]
=51
4dd
4ee
4ee
4dd
=52
8a
4g
[8g
2g]
=53
8g
4a
[8a
4a_
8.a]
16g
=54
8e
4d
[8d
4d_
8.d]
16d
=55
8.e
16g
8.a
16g
8b-
4a
[8g
!! Second ending.
=56
2g]
4g
4r
====
*-
